svgs/1F44C-1F3FC.svg

<svg xmlns="http://www.w3.org/2000/svg" xmlns:xlink="http://www.w3.org/1999/xlink" preserveAspectRatio="none" viewBox="0 0 72 72"><defs><path id="a" fill="#E0BB95" d="M105.15 48.3q-2.9-8.9-6.5-15.6-4.2-7.75-6.05-10.8-2.95-4.9-6.75-9.65-5.35-6.8-9.05-8.9Q71.3.2 66.35 4.45q-4.8 4.15.15 13.25-.2-.15 0 .9.2 1.1 0 .9-5.8-4.45-8.55-4.9-2.05-.4-4.45 1.55-4.3 3.4.4 11 2.55 4.15 8.4 11.35.35.55 1.85 1.5 1.55 1 1.8 1.45l1.1 1.85-1.3-.4q-3.65-1.05-8.7-1.4-6-.45-8.85.65-17.7 6.65-22 11.5-2.7 3.05-.85 8.35 1.75 4.9 6.95 6.1 6.15 1.4 14.4-3.75 10.45-4.3 19.1-.15 8 3.8 8 10.75 0 9.1-3.15 13.55-3.4 4.8-10.7 4.8-9.65 0-15.4-7.55-5.6-9.65-9.85-13.9-1.8-1.8-5.15-2.05-3.55-.3-5.9 1.4-4.85 3.55-3.9 11 .55 4.45 3.1 9.7 5.05 10.25 7.5 14.1 5.85 9.1 14.2 15.85 4.6 3.75 15.5 4.15 8.95.3 17.75-1.5 12.65-2.55 18.75-12 4.05-6.35 9.3-24.95 1.55-5.5 2.1-11.2.45-4.45.45-11.85 0-6.15-3.25-16.2z"/><path id="b" fill="#C48E6A" d="M44.8 20.2q-2.15-4.35-3.6-6.3-.65-.9-2.25-2.6Q37.3 9.5 37 9.15q.2.8-.35 1.25.1.15 1.95 2.65 2 2.85 2.85 4.75 1.35 3 2.5 6.3-7.55-2.4-8.9-2.4l.3.35q.25.5.25 1.05t-.55.6q5.55 1.65 7.2 2.3 4.35 1.7 6.75 4 1.15 1.1 2.5 2.75 1.4 1.75 2.15 3.05.5.85 1.15-.1.65-.95.5-1.65-.45-1.85-3.6-4.9-2.45-2.35-4.75-3.85-.25-1.1-2.15-5.1z"/></defs><use transform="scale(.5625)" xlink:href="#a"/><use xlink:href="#b"/></svg>

<svg xmlns="http://www.w3.org/2000/svg" version="1.1" xmlns:xlink="http://www.w3.org/1999/xlink" preserveAspectRatio="none" x="0px" y="0px" width="72px" height="72px" viewBox="0 0 72 72">
<defs>
<g id="Layer0_0_MEMBER_0_FILL">
<path fill="#E0BB95" stroke="none" d="
M 105.15 48.3
Q 102.25 39.4 98.65 32.7 94.45 24.95 92.6 21.9 89.65 17 85.85 12.25 80.5 5.45 76.8 3.35 71.3 0.2 66.35 4.45 61.55 8.6 66.5 17.7 66.3 17.55 66.5 18.6 66.7 19.7 66.5 19.5 60.7 15.05 57.95 14.6 55.9 14.2 53.5 16.15 49.2 19.55 53.9 27.15 56.45 31.3 62.3 38.5 62.65 39.05 64.15 40 65.7 41 65.95 41.45
L 67.05 43.3 65.75 42.9
Q 62.1 41.85 57.05 41.5 51.05 41.05 48.2 42.15 30.5 48.8 26.2 53.65 23.5 56.7 25.35 62 27.1 66.9 32.3 68.1 38.45 69.5 46.7 64.35 57.15 60.05 65.8 64.2 73.8 68 73.8 74.95 73.8 84.05 70.65 88.5 67.25 93.3 59.95 93.3 50.3 93.3 44.55 85.75 38.95 76.1 34.7 71.85 32.9 70.05 29.55 69.8 26 69.5 23.65 71.2 18.8 74.75 19.75 82.2 20.3 86.65 22.85 91.9 27.9 102.15 30.35 106 36.2 115.1 44.55 121.85 49.15 125.6 60.05 126 69 126.3 77.8 124.5 90.45 121.95 96.55 112.5 100.6 106.15 105.85 87.55 107.4 82.05 107.95 76.35 108.4 71.9 108.4 64.5 108.4 58.35 105.15 48.3 Z"/>
</g>

<g id="Layer0_0_MEMBER_1_FILL">
<path fill="#C48E6A" stroke="none" d="
M 44.8 20.2
Q 42.65 15.85 41.2 13.9 40.55 13 38.95 11.3 37.3 9.5 37 9.15 37.2 9.95 36.65 10.4 36.75 10.55 38.6 13.05 40.6 15.9 41.45 17.8 42.8 20.8 43.95 24.1 36.4 21.7 35.05 21.7
L 35.35 22.05
Q 35.6 22.55 35.6 23.1 35.6 23.65 35.05 23.7 40.6 25.35 42.25 26 46.6 27.7 49 30 50.15 31.1 51.5 32.75 52.9 34.5 53.65 35.8 54.15 36.65 54.8 35.7 55.45 34.75 55.3 34.05 54.85 32.2 51.7 29.15 49.25 26.8 46.95 25.3 46.7 24.2 44.8 20.2 Z"/>
</g>
</defs>

<g id="Layer_1">
<g transform="matrix( 0.5625, 0, 0, 0.5625, 0,0) ">
<use xlink:href="#Layer0_0_MEMBER_0_FILL"/>
</g>

<g transform="matrix( 1, 0, 0, 1, 0,0) ">
<use xlink:href="#Layer0_0_MEMBER_1_FILL"/>
</g>
</g>
</svg>
